X: 2212
T: Autumn Folia
R: waltz
M: 3/4
K: Dminor
L:1/4
K:Dm
Ac|"Dm"[dF][dF][dF]|"A7"[E^c]3|"Dm"[dF]>[dF][dF]|
"C"[ce]3|"F"[fc]/e/[fc][fc]|"C"[ce]3|"Dm"(d/A/F/A/) d2|"A7"[E^c]3||
"Dm"d/A/F/A/d/A/|"A7"^c/A/E/A/^c/e/|"Dm"f/e/d/e/f|"C"[gc]3|
"F"a/g/f/g/a|"C"g/f/ eg|f/e/"Dm"d2"A7"^c|"Dm"[dF]2z||
"Dm"A,/D/F/A/d/A/|"A7"^c/d/e/^c/a/^c/|"Dm"f/e/d/A/D/A/|"C"[ce]zG/E/C/|
"F"[A,F]>E [A,F]|"C"[EG,]/D/C/D/E|1 "Dm"D D/D/ D|"A7"^CA,^C:|2 "Dm"DD"A7"^C|"Dm"[A,D2]z||

